; generated by OrcaSlicer 2.2.0
; Single-color test file for local development
; filament_type = PLA
; filament_colour = #161616
;
; --- HEADER ---
; nozzle_diameter = 0.4
; filament_diameter = 1.75
; layer_height = 0.2
; first_layer_height = 0.3

M82 ; absolute extrusion mode
G28 ; home all axes
M190 S60 ; set bed temp
M109 S210 ; set nozzle temp

; --- LAYER 1 ---
G1 Z0.3 F3000
G1 X50 Y50 F6000
G1 X100 Y50 E10 F1500
G1 X100 Y100 E20
G1 X50 Y100 E30
G1 X50 Y50 E40

; --- LAYER 2 ---
G1 Z0.5 F3000
G1 X50 Y50 F6000
G1 X100 Y50 E50 F1500
G1 X100 Y100 E60
G1 X50 Y100 E70
G1 X50 Y50 E80

M400
M104 S0 ; turn off nozzle
M140 S0 ; turn off bed
G28 X Y ; home X Y
M84 ; disable motors
