; generated by OrcaSlicer 2.2.0
; Multi-color honeycomb test file for local development
; filament_type = PLA
; filament_colour = #161616;#F72224;#FFFFFF;#FFFFFF
; This file simulates a 4-tool multi-color AMS print
;
; --- HEADER ---
; nozzle_diameter = 0.4
; filament_diameter = 1.75
; layer_height = 0.2
; first_layer_height = 0.3
; referenced_tools = 0,1,2,3
; filament_change_count = 47

M82 ; absolute extrusion mode
G28 ; home all axes
M190 S60 ; set bed temp
M109 S210 ; set nozzle temp

; --- LAYER 1, Tool 0 (Black) ---
T0
G1 Z0.3 F3000
G1 X50 Y50 F6000
G1 X100 Y50 E10 F1500

; Tool change to T1 (Red)
T1
G1 X100 Y100 E20 F1500
G1 X50 Y100 E30

; Tool change to T2 (White)
T2
G1 X50 Y50 E40 F1500

; --- LAYER 2, Tool 0 (Black) ---
T0
G1 Z0.5 F3000
G1 X50 Y50 F6000
G1 X100 Y50 E50 F1500

; Tool change to T3 (White)
T3
G1 X100 Y100 E60 F1500

M400
M104 S0 ; turn off nozzle
M140 S0 ; turn off bed
G28 X Y ; home X Y
M84 ; disable motors
